assets/img/elements/hero-4-start-shape-1.svg

<svg width="146" height="146" viewBox="0 0 146 146" fill="none" xmlns="http://www.w3.org/2000/svg">
<path d="M70.7824 3.40363C71.9723 2.09756 74.0277 2.09756 75.2176 3.40362L84.8919 14.022C86.7338 16.0436 89.5844 16.8074 92.1903 15.9775L105.878 11.619C107.561 11.0829 109.341 12.1105 109.719 13.8366L112.788 27.8695C113.372 30.5412 115.459 32.628 118.131 33.2123L132.163 36.2813C133.889 36.6588 134.917 38.4388 134.381 40.1223L130.022 53.8097C129.193 56.4156 129.956 59.2662 131.978 61.1081L142.596 70.7824C143.902 71.9723 143.902 74.0277 142.596 75.2176L131.978 84.8919C129.956 86.7338 129.193 89.5844 130.022 92.1903L134.381 105.878C134.917 107.561 133.889 109.341 132.163 109.719L118.131 112.788C115.459 113.372 113.372 115.459 112.788 118.131L109.719 132.163C109.341 133.889 107.561 134.917 105.878 134.381L92.1903 130.022C89.5844 129.193 86.7338 129.956 84.8919 131.978L75.2176 142.596C74.0277 143.902 71.9723 143.902 70.7824 142.596L61.1081 131.978C59.2662 129.956 56.4156 129.193 53.8097 130.022L40.1223 134.381C38.4388 134.917 36.6588 133.889 36.2813 132.163L33.2123 118.131C32.628 115.459 30.5412 113.372 27.8695 112.788L13.8366 109.719C12.1105 109.341 11.0829 107.561 11.619 105.878L15.9775 92.1903C16.8074 89.5844 16.0436 86.7338 14.0219 84.8919L3.40363 75.2176C2.09756 74.0277 2.09756 71.9723 3.40362 70.7824L14.022 61.1081C16.0436 59.2662 16.8074 56.4156 15.9775 53.8097L11.619 40.1223C11.0829 38.4388 12.1105 36.6588 13.8366 36.2813L27.8695 33.2123C30.5412 32.628 32.628 30.5412 33.2123 27.8695L36.2813 13.8366C36.6588 12.1105 38.4388 11.0829 40.1223 11.619L53.8097 15.9775C56.4156 16.8074 59.2662 16.0436 61.1081 14.0219L70.7824 3.40363Z" fill="#F5EFEB" stroke="#0A102F" stroke-width="4"/>
</svg>

<?xml version="1.0" encoding="utf-8"?>
<!-- Generator: Adobe Illustrator 28.3.0, SVG Export Plug-In . SVG Version: 6.00 Build 0)  -->
<svg version="1.1" id="Layer_1" xmlns="http://www.w3.org/2000/svg" xmlns:xlink="http://www.w3.org/1999/xlink" x="0px" y="0px"
	 viewBox="0 0 146 146" style="enable-background:new 0 0 146 146;" xml:space="preserve">
<style type="text/css">
	.st0{fill:#ED7931;stroke:#0A102F;stroke-width:4;}
</style>
<path class="st0" d="M70.8,3.4c1.2-1.3,3.2-1.3,4.4,0L84.9,14c1.8,2,4.7,2.8,7.3,2l13.7-4.4c1.7-0.5,3.5,0.5,3.8,2.2l3.1,14
	c0.6,2.7,2.7,4.8,5.3,5.3l14,3.1c1.7,0.4,2.8,2.2,2.2,3.8L130,53.8c-0.8,2.6-0.1,5.5,2,7.3l10.6,9.7c1.3,1.2,1.3,3.2,0,4.4L132,84.9
	c-2,1.8-2.8,4.7-2,7.3l4.4,13.7c0.5,1.7-0.5,3.5-2.2,3.8l-14,3.1c-2.7,0.6-4.8,2.7-5.3,5.3l-3.1,14c-0.4,1.7-2.2,2.8-3.8,2.2
	L92.2,130c-2.6-0.8-5.5-0.1-7.3,2l-9.7,10.6c-1.2,1.3-3.2,1.3-4.4,0L61.1,132c-1.8-2-4.7-2.8-7.3-2l-13.7,4.4
	c-1.7,0.5-3.5-0.5-3.8-2.2l-3.1-14c-0.6-2.7-2.7-4.8-5.3-5.3l-14-3.1c-1.7-0.4-2.8-2.2-2.2-3.8L16,92.2c0.8-2.6,0.1-5.5-2-7.3
	L3.4,75.2c-1.3-1.2-1.3-3.2,0-4.4L14,61.1c2-1.8,2.8-4.7,2-7.3l-4.4-13.7c-0.5-1.7,0.5-3.5,2.2-3.8l14-3.1c2.7-0.6,4.8-2.7,5.3-5.3
	l3.1-14c0.4-1.7,2.2-2.8,3.8-2.2L53.8,16c2.6,0.8,5.5,0.1,7.3-2L70.8,3.4z"/>
</svg>
